X: 142225
T: New May Moon
S: Colclough Collection
L: 1/8
M: 6/8
R: jig
Q: 1/4=160
K: D
A |d2d d2A |B2A A2A |d2d ede |f2d d2f |
g2g f2f |efd cBA |BAG FGA |B2A A2 :|
B/c/ |d2A d2A |B2A A2A |ded efg |f2d d2 e/f/|
gag fgf |efd cBA |BAG FGA |B2A A2 :|
